X:537
T:She'll Be Comin' Round The Mountain
C:Joe Buchanan's Scottish Tome - Page 064.3
I:064 3
Z:Carl Allison
R:Reel
L:1/8
M:4/4
K:A
E>F | AAAA FECE | A2 A>B A2 A>B | ccc>c eeec | B2 B>c B2 e>d | 
ccc>c B2 A2 | AAA>A d2 d>d | ccc>c BBcB | A2 A>B A2 |

